X:1
T:Al partir del mio Sole
T:Al partir del mio Sole
T:Claudio Saracini
T:Source : Le terze Musische per cantar e sonar---Venetia---A.Vincenti---1620. Editor : André Vierendeels (17/01/16).
T:Notes : Original clefs : C1, F4 Editorial accidentals above the staff Figures above the BC are notated in original print The original print was damaged (perhaps during WWII), necessitating an editorial addendum m29 Text by Giovanni Battista Guarini
T:©
T:©
T:©
T:©
C:Claudio Saracini
Z:©
%%score 1 2
L:1/8
Q:1/4=95
M:4/4
K:C
V:1 treble nm="Soprano" snm="S"
V:2 bass nm="BC" snm="BC"
V:1
 d2 c2 B4 | G6 ^F2 | A8 | A8 | c4 ^c2 c2- | c^ccc d4 | z E E2 EFGF | E4 D4 | z2 AA A4- | %9
w: Al par- tir|del mio|So-|le|pian- se la|_ vi- sta su- a,|la vi- sta _ _ _|su- a,|ch'al suo du-|
 A2 A2 ^G4 | A6 B2 | e6 d2 | A8- | A4 ^G4 | z2 e4 GG | G4 G4 | B/c/d/c/ A/B/c/B/ G/A/B/G/ G2 | %17
w: * ro par-|tir de|me par-|ti-|* a,|or che gli|tor- na'i|can- * * * * * * * * * * * *|
 A4 G4 | z2 c4 cc | cc ^c3 ccc | d4 d4 | z AAA A4 | ^G4 A4 | B4 B4 | cc c4 ^GA | B4 B4 | %26
w: * to,|e con la|ri- mem- bran- za di quel|gior- no|si pien d'a- ma-|ro pian-|* to,|ra- dol- cis- co la|gio- ia|
 c2 e2 Td4- | d4 c4 | z C/D/ E/F/G/A/ B/c/d/e/ e2- | eB B3 B d2 | A8 | G8 | %32
w: del ri- tor-|* no,|O _ _ _ _ _ _ _ _ _ _|_ fe- li- ce par-|ti-|ta,|
 z2 D/E/F/G/ A/B/c/d/ d2- | dA A3 A c2 | Td8 | c8 | z edc BdcB | A6 c2 | B8 | A8 | z dcB eedc | %41
w: O _ _ _ _ _ _ _ _|_ fe- li- ce par-|ti-|ta,|che fai piu ca- ra col mo-|rir la|vi-|ta,|che fai piu ca- ra col mo-|
 f6 e2 | d8 | c8 | z edc BBAG | ^F6 B2 | A8 | G8 |] %48
w: rir la|vi-|ta,|che fai piu ca- ra col mo-|rir la|vi-|ta.|
V:2
 G,,2 A,,2 B,,4- | B,,4 D,4 | D,8 | D,,8 |"^-natural""^#" A,,4 A,,4- | A,,4 ^F,,4 | A,,8 | %7
 A,,4 D,4 | ^C,8 | B,,8 | A,,4 ^G,,4- | G,,4 ^F,,4 |"^-natural" F,8 | E,8 | C,4 B,,4- | B,,4 B,,4 | %16
 G,,2 A,,2 B,,4 | C,E, D,2 G,,4 | F,,4 A,,4 | A,,2 A,,6 | ^F,,8 | ^C,4 ^G,,4- | G,,4 ^C,4 | %23
 B,,4 B,,4 | A,,4 E,2 E,2 | G,,8 | E,4 G,,4- | G,,4 C,4 | C,8 | B,,8 | D,8 | G,,8 | D,8 | %33
 ^C,6 E,2 | G,8 | C,8 | C,4 G,,4 | ^C,8 | E,8 | A,,8 | G,,4 C,4 | D,4 G,,4- | G,,8 | C,8 | %44
 C,4 G,,4 | D,4 D,,4 | D,8 | G,,8 |] %48

